X:1
T:Blue Danube Waltz
T:Blue Danube Waltz
T:Player Piano Roll 3034S
%%score { ( 1 3 ) | ( 2 4 ) }
L:1/8
Q:1/4=165
M:3/4
K:A
V:1 treble nm="Piano" snm="Pno."
V:3 treble 
V:2 bass 
V:4 bass 
V:1
"^\n\n" z6 | z[K:treble] A- A4 | z =G- [Gc]4 | z A- [Ad]4 | %4
 [=Gc]2- [Gc]/4-[G-^Gc-]/4[G-Ac-]/[G-Bc-] [GA-c]2 | A4 z/ d/(3:2:2D/d- | %6
 [Ad]2 a-[Aa] z/4 [Ad-f-]3/4[df]- | [DFAd-f-]2 [d-f-f'a']/[d-f-a]/[d-f-a'] (3[dff'a'] z .^E | %8
 .F z/4 z/8 =G/8-G/ [d'f']/f/.f' z/ .f/-.[fd'f'] | .[A,D]2 .[DF].D z/ d/D/.d/ | %10
 z/ f/.F z/ d/-[da] c/-[c-a]/[Ac-]/[c-a]/ | %11
 [Ac-]/[c-a]/[Ac]/-[A-c-a]/ [A-c-c'a']/[A-c-a]/[Ac-a'] [cc'a']2 | .[C=G]2 .[c'=g']/>g'/-g' .g'2 | %13
 .C2 =G.c [EG]/-[EGc]/(3:2:2C/c- | c/-[ce]/E/e/ [c-=g][Bc] B/b/B/b/ | %15
 B/b/B/b/ =g'/b/g'/4-[g'b']/4b/- [bg'b']G, | (3:2:2=G2 .B, [c'=g']/=g/g'/4>D/4-D/ g<.g' | %17
 .C2 =G.c C/c/(3:2:2Cc/- | %18
 c/-[ce]/E/e/4-[B-c-e=g-]/4 [Bc-g-][Bcg] [Bd-f-]/[d-f-b]/[Bd-f-]/[d-f-b]/ | %19
 [Bd-f-]/[d-f-b]/[Bd-f-]/[d-f-b]/ [d-f-f'b']/[d-f-b]/[d-f-b'] (3[dff'b'] z .^E | %20
 (3.F z .A [d'f']/f/.f' z/4 .[d'f']3/4 z | z2 z2 .[FA]2 | z/ f/.F z d/a/ z/4 [df-]3/4f- | %23
 [FAdf-]2 [f-a'd'']/[f-d']/[f-d''] [fa'd'']2 | .[DFA]2 [f'a']/a/.a' .[f'a']2 | z2 z2 .[FA]2 | %26
 z/ f/.F z/ d/4-[d-a]/4[Ad]/a/ [=gb]/-[g-b-d']/[dg-b-]/[g-b-d']/ | %27
 [dg-b-]/[g-b-d']/[dg-b-]/[g-b-d']/ [g-b-b'd'']/[g-b-d']/[gbd''] .[b'd'']2 | %28
 .[E=GB]2 [e'b']/b/.b' (3.[e'b'] z[K:bass] .F, | (3.E z .A,[K:treble] z e [=GB]/-[GBe]/(3:2:2E/e- | %30
 e/-[e-=g]/[=Ge-] [B,EGe] z/4 .[Bb]3/4 [Bg]/b/g/b/ | =g/b/g/b/ g/b/g/b/ [Bg]/b/g/b/ | %32
 e/g/e/g/ e/a/(3:2:2e/[ca] [fd']/f'/d'/f'/ | [fd']/f'/d'/f'/ [fd']/f'/d'/f'/ [fd']/f'/d'/f'/ | %34
 z z/ d'/ f2 z2 | d/f/d/f/ [B,E]/e/B/e/ =g/b/g/b/ | =g/b/g/b/ .A/>e/-e a/4-[da]/4d'/a/d'/ | %37
 a/d'/.a/-<.[Aa]/ d'-[A-dad'] A2 | .d'2 .c' z/4 .c'3/4 .[cec']2 | z6 | z2 z z/ z/4 b/4- b2 | %41
 z2 [db]4[K:bass] | z6[K:treble] | z2 z z/ e'/ z2 | (3.[eac'e'].F.G .[eac'e']2 e'/b'/e'/b'/ | %45
 [be']/b'/e'/b'/ [ae']/a'/e'/a'/ .[ae']2 | .[fd']2 .[ec']>.c' .[cec']2 | (3.[Bdb]B,D .[Bdb]2 z2 | %48
 .[db]c- [c^ac'] (3z/ e'/f'/ (3[ec'e'] z d | .[bd']d .[bd']2 z z/ B,/ | %50
 [gd']/g'/.d'/>^e'/- e'.e' z/4 [bf']/4b'/f'/b'/ | %51
 [bf']/b'/f'/b'/ f'/a'/.f' z/8 a'/8-[d-gd'a']/4[d-g']/[d-d']/[d-g']/ | %52
 (3[d-gd'][d-bg'][dff'] (3[d-f-bd'-][dfd'].[Bb] (3[fbd'f'] z .[fbd'f'] | %53
 [fbd'] .[egbe']3 [Acea]2- | [Acea]2 [Ae]/a/e/c/- [=Gce=g]2 | .E2 e/a/e/a/ (3=g z =G,- | %56
 [G,E]2 e/a/(3:2:2e/[ca] [fc']/[af']/[fc']/[af']/ | %57
 [fc']/[af']/[fc']/[af']/ [fc']/f'/c'/f'/ [fc']/f'/c'/f'/ | %58
 [ec']/e'/c'/e'/ e/a/(3:2:2e/[ca] .[FAdf]2 | .D2 f/a/f/a/ .[F,FAf]2 | %60
 .D2 f/a/(3:2:2f/[da] e/e'/a/e'/ | [ea]/[fe']/[ea]/[fe']/ [ea]/e'/a/e'/ [ea]/[fe']/[ea]/[fe']/ | %62
 [da]/[fd']/a/d'/ [DFA]/a/(3:2:2f/[da] (3[=Gce=g] z =G, | (3.EB,.=C e/a/e/a/ (3=g z =G, | %64
 (3:2:2EB,/-B,/4 z/8 =C/8-C/ e/a/(3:2:2e/[ca] [fc']/f'/c'/f'/ | %65
 [fc']/[af']/[fc']/[af']/ [fc']/f'/c'/f'/ [fc']/[af']/[fc']/[af']/ | %66
 [ec']/[=ge']/[ec']/e'/ e/a/(3:2:2e/[ca] d/d'/a/[fd']/ | %67
 [ec']/[=ge']/(3:2:2[ec']/[ge'] [f=c']/f'/c'/4>a/4-a/ [A-a]/[A-a']/[A-f']/[A-a']/ | %68
 [A-af']/[A-a']/[A-f']/[A^d'a']/ [=ge']/[b=g']/(3:2:2[ge']/[bg'] [a=d'f']/-[Aa-d'f']/[af']/-[Aaf']/ | %69
 [fd']/[af']/[fd']/[Aaf']/ [ec']/[=ge']/[ec']/[=Gge']/ [da]/[fd']/(3:2:2[da]/[fd']- | %70
 [D,,,F,dfad']2 .[d'd'']2 z/4 [d'^a']/4[^e'd'']/[d'a']/[e'd'']/ | %71
 [d'^a']/[^e'd'']/[d'a']/[e'd'']/ [d'a']/[e'd'']/[d'a']/[de'd'']/ [d'a']/[e'd'']/[d'a']/[e'd'']/ | %72
 [^d'^a']/[=g'^d'']/[d'a']/[g'd'']/ [=d'a']/[^e'=d'']/[d'a']/[de'd'']/ [=c'g']/[^d'=c'']/[c'g']/[d'c'']/ | %73
 [^a=g']/[^d'^a']/[ag']/[d'-a']/ [=ad'-]/[=c'd'=a']/[ad']/[c'a']/ [=G,=gd']/[c'g']/[gd']/[c'g']/ | %74
 [=g^d']/[=c'=g']/[gd']/[c'g']/ [gd']/[c'g']/(3:2:2[gd']/[=Gg'] .[=C=cc'd'a'=c'']2 | %75
 .[^D^EA]2 [=c'a']/[^d'=c'']/[c'a']/[d'c'']/ A,/-[A,-d'c'']/A,/-<[A,-^e^e']/ | %76
 [A,-=g^d']/[A,=c'=g']/[gd']/[c'g']/ (3.[=C^D] z .[^e^e'] [e=d']/[^ae']/[ed']/.[ae']/ | %77
 [d^a]/[^ed']/[da]/.[ed']/ [a^e']-[ea-d'e'-]/[dae']/ [e=c']/e'/c'/e'/ | %78
 .[^ed'] z/4 .[ed']3/4 [e=c']/[=a^e']/.[ec'] z/8 e'/8-[d'e'^a']/4[e'd'']/[d'a']/[e'd'']/ | %79
 [d'^a']/[^e'd'']/[d'a']/[e'd'']/ [d'a']/[e'd'']/[d'a']/[e'd'']/ [d'a']/[e'd'']/[d'a']/[e'd'']/ | %80
 [^d'^a']/[=g'^d'']/[d'a']/[g'd'']/ [=d'a']/[^e'=d'']/[d'a']/[de'd'']/ [=c'g']/[^d'=c'']/[c'g']/[d'c'']/ | %81
 [^a=g']/[^d'^a']/[ag']/[d'-a']/ [=ad'-]/[=c'd'=a']/(3:2:2[ad']/[Ac'a'] [=g^c']/[^ag']/[gc']/[ag']/ | %82
 [=gc']/[^a=g']/[gc']/[ag']/ [gc']/[ag']/(3:2:2[gc']/[=Gag'] .[f=ad'f']2 | z2 z z/ [af']/- [af']2 | %84
 [=gd']/[^a=g']/[gd']/[ag']/ [gd']/.[ag']/ z/4 [^A,^Aa^a']3/4 [=af']/[d'=a']/[af']/[d'a']/ | %85
 [af']/[d'a']/ z/4 .[DF]/4-.[DFd'a']/ [af']/[d'a']/[af']/[d'a']/ F,/-[F,-d'a']/[F,-af']/[F,a']/- | %86
 (3[F,-af'a']F,-[F,-A,] [F,d'f']/-[F,d'-f'-a']/[ad'-f'-]/[d'f'a']/ (3[=gc'e'=g'] z .F | %87
 (3.=G z .F [c'e']/-[c'e'a']/a/a'/ (3=g' z .F | %88
 (3.=G z .F [c'e']/-[c'-e'-a']/[ac'e'] z/ [f'c''-]/[c''f'']/4-[f'c''-f'']/4[c''-f'']/ | %89
 [f'c''-]/[c''-f'']/[f'c''-]/[c''-f'']/ [f'c''-]/[c''-f'']/[f'c''-]/[c''-f'']/ [f'c''-]/[c''f'']/f'/f''/ | %90
 [a'c'']/-[a'-c''-e'']/[e'a'-c''-]/[a'c''e'']/ [c'e']/-[c'-e'-a']/[ac'-e'-]/[Ac'e'a']/ .[fad'f'] z/4 z/8 ^E/8-E/ | %91
 (3.F z .A [d'f']/-[d'f'-a']/[af']/a'/ (3f' z .^E | %92
 (3.F z A [d'f']/-[d'-f'a']/[ad'-]/[D,,-d'a'-]/ [D,,f'a']/-[D,,-f'-a'-e'']/[D,,-e'f'-a'-]/[D,,-f'-a'-e'']/ | %93
 [D,,-e'f'-a'-]/[D,,-f'-a'-e'']/[D,,-e'f'-a'-]/[D,,f'-a'-e'']/ [e'f'-a'-]/[f'-a'-e'']/[e'f'-a'-]/[f'a'e'']/ [Ee']/e''/e'/e''/ | %94
 [f'a']/-[f'a'-d'']/[d'a'-]/[a'd'']/ [d'f']/-[d'-f'-a']/[ad'-f'-]/[d'f'a']/ (3[=gc'e'=g'] z .F | %95
 (3.=G z .F [c'e']/-[c'e'a']/a/a'/ (3=g' z .F | %96
 (3.=G z .F [c'e']/-[c'-e'-a']/[ac'e'] z/4 [f'c''-]/4[c''-f'']/[f'c''-]/[c''-f'']/ | %97
 [f'c''-]/[c''-f'']/[f'c''-]/[c''-f'']/ [f'c''-]/[c''-f'']/[f'c''-]/[c''-f'']/ [Ff'c''-]/[c''f'']/f'/f''/ | %98
 [a'c'']/-[a'-c''-e'']/[e'a'-c''-]/[a'c''e'']/ [c'e']/-[c'-e'-a']/[ac'e'] z/4 [d'f'-]/4[f'-d'']/[d'f'-]/[f'd'']/ | %99
 z/ e''/(3:2:2e'/e'' z/ f''/f'/f/ [^D-Aa'^d''-]/[D-d''-a'']/[D-a'd''-]/[D-d''-a'']/ | %100
 [D-a'd''-]/[D-d''-a'']/[Da'd''][K:bass] z/8[K:treble] a''/8-[=g'b'-e''-a'']/4[b'e''-=g'']/[g'e''-]/[e''g'']/ (3f'' z .[f'f''] | %101
 [a'd'']/-[a'-d''-f'']/[f'a'-d''-]/[a'd''f'']/ z/ e''/e'/e''/ [f'a']/-[f'-a'-d'']/[d'f'-a'-] | %102
 [f'a'd''].d' .d2 .B/-<.[Bd=g]/.d/.e/ | (3:2:2f=g/ z/4 a3/4 b/g/b/g/ b/g/b/4-[b=c'-]/4[c'^c']/ | %104
 d'/b/d'/b/ d'/b/ z/4 =c'3/4 b/=g/b/g/ | .[=GBd]2 .[GBd]2 d/B/(3:2:2d/B- | %106
 [Bd]2 =G2 .[d=gb].d/.e/ | (3:2:2f=g/-g/.a/ b/g/b/g/ b/g/(3b/=c'/d'/- | %108
 [d'e']/=c'/e'/c'/ e'/.c'd'/ c'/a/c'/a/ | .[Adf]2 .[FAdf]2 z/4 [A-f]3/4A- | %110
 [A-f]2 [A-f]/[A-d]/(3[A-f]/[Ad-]/d/ (3:2:2[=cfa=c']d/-d/4 z/8 e/8-e/ | %111
 (3:2:2fa/-a/.b/ =c'/a/c'/a/ c'/a/c'/d'/4e'/4- | [e'f']/d'/f'/d'/ f'/d'/[e=c'e'] =g'/b/g'/.b/ | %113
 .[Bd=gb]2 .[Bdgb]2 b/g/b/g/ | b/.=gg/ (3[B-d-b][Bd]g [=ca]/e/a/e/ | %115
 .[=ca]>A .[cea]2 z/4 [c^a]/4e/a/e/ | (3^a z ^A (3.[=cea] z .[Aa] [^db]/f/(3:2:2b/[Bf] | %117
 z2 z/ f/ [Bf]3 | z z/4 b3/4 (3:2:2=c'2 .[db] (3:2:2[db]2 .a | %119
 (3:2:2[Bg]2 .[=ca] (3:2:2[db]2 .[ca] (3:2:2[ca]2 .[B=g] | %120
 [^Af][B=g] .[d'd'']2[K:bass][K:treble] [dfad'] z/4 .[=c=c']3/4 | %121
 .[G,^E=c^e=c']2 .[cfc']2[K:bass][K:treble] [cfc']2 | .[B=gb]2 (3[B-g-b][Bg].[db] (3:2:2[db]2 .a | %123
 (3:2:2[Bg]2 .[=ca] (3:2:2[db]2 .[ca] (3:2:2[ca]2 .=g | %124
 f z/ z/4 [b=g']/4- [D,,-bg']2 [D,,-=g=c'g']D,,/-<[D,,ff']/ | .[fbd'f']2 .[fa=c'f']2 .[=gbe']2 | %126
 .[d=gbd']2 (3.[gbd'] z .[db] (3:2:2[db]2 .a | %127
 (3:2:2[Bg]2 .[=ca] (3:2:2[db]2 .[ca] (3:2:2[ca]2 .=g | %128
 f z/ [d'd'']/- [d'd'']2 [dfad'] z/4 .=c'3/4 | .=c'2 .[=cfc']2[K:bass][K:treble] [cfc']2 | %130
 .[B=gb]2 [Bgb] z/4 z/8 [db]/8-[db]/ [db] z/4 z/8 a/8-a/ | %131
 (3:2:2[Bg]2 .[=ca] (3:2:2[db]2 .[ca] (3:2:2a2 =g | z/ c'-[=g-b-c'=g'-]/ [gbg']2 [fa=c'f']2- | %133
 (3[Ffac'f'] z .e' (3[=c-f-a=c'-][cfc'].[Aa] z2 | =G,,,2 z2 z/4 [=gd']/4=g'/d'/g'/ | %135
 [=gd']/=g'/d'/g'/ [gd']/g'/.d' z/8 g'/8-[gc'g']/4g'/c'/g'/ | %136
 [=gc']/=g'/c'/g'/ [gc']/[^ag']/.[gc'] z/ [g=c'e'-]/e'/-<[=cegc'e']/ | %137
 .[=ce=g=c']2 .[cegc']2[K:bass][K:treble] [cegc']2- | [cegc']2 z =c z/ =C/-[CA]/.^e/ | %139
 (3[=c^e-a-][ea].=c' e/^e'/e/e'/ [A,e]/e'/e/e'/ | e/e'/e/e'/ d/d'/(3:2:2d/d' c/c'/c/c'/ | %141
 [D=Gd]/d'/d/d'/ .[ee'] z/4 ^G,/-[G,A,]/4 e/e'/e/e'/ | [E=Ge]/e'/e/e'/ e/e'/(3:2:2e/e' c/c'/c/c'/ | %143
 d/d'/d/d'/ .[ee'] z/4 ^G,3/4 e/e'/e/e'/ | e/e'/e/e'/ z/4 ^A/4-[Ae']/ z/4 A/4-[Ae']/ B/b/B/b/ | %145
 =c/=c'/c/c'/ d/d'/d/d'/ c/c'/c/c'/ | =c/=c'/c/c'/ c/c'/(3:2:2c/c' (3:2:2c2 .[^E^e] | %147
 (3[=c^e-a-][ea].[c=c'] [Aa]/a'/a/a'/ a/a'/a/a'/ | =g/=g'/g/g'/ ^e/^e'/(3:2:2e/e' =e/=e'/e/e'/ | %149
 [^A^e]/^e'/e/e'/ .=g'C/.D/ =g/g'/g/g'/ | =g/=g'/g/g'/ g/g'/(3:2:2g/g' ^e/^e'/e/e'/ | %151
 =c/[Aa]/(3:2:2[=Cc]/[Aa] [^E^e]/[dd']/(3:2:2[Ee]/[dd'] [=E=e]/[c=c']/[Ee]/[cc']/ | %152
 ^A/[=G=g]/[^A,A]/[Gg]/ =c/a/c/a/ [^Ec-^e-][=Cc-e-] | [^Ece]A/=c/ [A^e].[ca] [e=c'].[a^e'] | %154
 [dad']/ z/8 =c'3/8a/c'/ a/c'/b (5:4:5[=ca-]/a/4.c'3/4a/c'/ | z2 =c''3 z/ z/4 d'/4- | d'2 z2 z2 | %157
 .[^e'a'=c'']2 c''3 z/ =c/ | z6 | z2 z z/ e/- e2 | e/=g/e/g/ e/a/(3:2:2e/[=ca] [^Ag]/^a/g/a/ | %161
 =g/^a/ z/4 d'3/4 ^A/e/.A .[EA]>^A, | %162
 (3:2:2[^Ae=g]2 .[=Aa] (3:2:2[^Aeg^a]2 .[Bb] (5:4:5[=c=a-]/a/4.=c'3/4a/c'/ | z2 =c''4 | %164
 .d'2 z2 z2 | d''/ z/8 =c'3/8 (3z/4 a/4b' z/ c'/.a z/4 .[=ca]3/4.^e/>^g/- | %166
 [ga^e']/[=c'a']/[ae']/a'/ a/c'/(3:2:2a/[^ec'] B,/-[B,-b]/[B,e]/b/ | %167
 [^EB^e]/[db]/^e' [ed']/e'/(3:2:2d'/[be'] (3.[ed'].[be'].=e' | %168
 [eb]/[=ge']/[eb]/[ge']/ .[db].b z/ .[dg^ad']/ z/4 d'3/4 | [d^a]/d'/a/d'/ =g/=c'/(3:2:2g/[ec'] z2 | %170
 ^E,,,2 z2 z/4 [=ca]/4=c'/a/c'/ | a/=c'/a/c'/ a/c'/.a z/8 c'/8-[dac']/4d'/a/d'/ | %172
 D/4-[D-a]/4[D-d']/D/4-<[D-a]/4[D^ed']/ [^da]/[e^d']/(3:2:2[da]/[ed'] (3:2:2[=ea]2- [G,e-a-] | %173
 [A,e-a-]/[Ce-a-]/[Ee-a-]/[Aea]/ c/[A-e]/[Aca]/-[Acfa-c'-]/ [ac'e'-](3e'/.d'/e'/- | %174
 [d'e'] (3z/ c'/d'/ c' (3z/ c'/d'/ [c^e] z/4 z/8 d/8-d/4d'/4 | %175
 (3:2:2[^egc']2 .=c' (3:2:2[eg^c']2 .[dd'] (3[cfac'] z B | .[cfb]>A .[cfa]2 .[Bc^eg] z/4 .g3/4 | %177
 [c^e] .[cea]3[K:bass] z2 | z2 z z/[K:treble] a/- a2 | z2 .c'2 ^e<.f | z2 .c2 [ce]/-[cea']/a/a'/ | %181
 b/b'/b/b'/ c'/c''/c'/c''/ d'/d''/d'/d''/ | f/f'/f/f'/ f/f'/ z/4 .[aa']3/4 d'/d''/d'/d''/ | %183
 f/f'/f/f'/ f/f'/a' d'/d''/d'/d''/ | d'/d''/d'/d''/ d'/d''/d'/d''/ [Dd']/d''/d'/d''/ | %185
 c'/c''/c'/c''/ b/b'/b/b'/ c'/c''/c'/c''/ | e/e'/e/e'/ (3.e.e'.a' c'/c''/c'/c''/ | %187
 e/e'/e/e'/ e/e'/ z/4 .[aa']3/4 c'/c''/c'/c''/ | %188
 c'/c''/c'/c''/ c'/c''/(3:2:2c'/c'' c'/c''/c'/c''/ | b/b'/b/b'/ a/a'/a/[Aa']/ g/g'/g/g'/ | %190
 b/b'/b/b'/ g'/g''/g'/g''/ g'/g''/g'/g''/ | f'/f''/f'/f''/ d'/d''/(3:2:2d'/d'' c'/c''/c'/c''/ | %192
 c'/c''/c'/c''/ c'/c''/c'/c''/ [Cc']/c''/c'/c''/ | b/b'/b/b'/ a/a'/(3:2:2a/a' g/g'/(3:2:2g/g' | %194
 a/a'/a/[Aa']/ b/b'/b/b'/ =c'/=c''/c'/c''/ | %195
 c'/c''/c'/[cc'']/ [f-a-^d']/[fa^d'']/(3:2:2d'/[^dd''] .[EGBee'e'']2 | %196
 (3[Ee] z .[Ee] .[Ee]2 (3:2:2[EG-B-e]2 [GB^d'] | (9:8:8e'3/4b3/4g3/4 e3/4g3/4b3/4 c'3/2.f3/4 | %198
 (3:2:2e2 .f (3:2:2e2 .f (3:2:2c'2 .f | (3:2:2e2 .f (3:2:2e2 .f (3:2:2[ceac']2 .f | %200
 e z/4 z/8 f/8-f/ (3e z .e (3:2:2[^DA=c^d]2 .e | %201
 (3:2:2[Acf]2 .[Gg] [Acea] z/4 z/8 [Bb]/8-[Bb]/ (3:2:2[eac']2 .f | %202
 (3:2:2e2 .f (3:2:2e2 .f (3:2:2[ce^ac']2 .=g | (3:2:2f2 .=g (3:2:2f2 .g (3:2:2[fbd']2 .g | %204
 f z/4 z/8 =g/8-g/ (3f z .f (3:2:2[^EBd^e]2 .f | %205
 (3:2:2[Bdg]2 .[^A^a] (3:2:2[Bdfb]2 .[cc'] [fbd'] z/4 z/8 =g/8-g/ | %206
 (3:2:2f2 .=g (3:2:2f2 .g d' z/4 z/8 g/8-g/ | f z/4 z/8 =g/8-g/ (3:2:2f2 .g (3:2:2[fac'f']2 .e | %208
 f z/4 z/8 e/8-e/ f z/4 z/8 e/8-e/ (3f z f | (3:2:2e'2 e (3:2:2[ac']2 e (3[fb-d'-f'-][bd'f'].f | %210
 (3:2:2e2 .f (3:2:2e2 .f e z/4 z/8 e/8-e/ | [c'e'] z/4 z/8 e/8-e/ (3:2:2[bd']2 .e [cac']2 | %212
 E, z/4 z/8 e/8-e/[K:bass] (3F,/-[F,,F,]3/2[K:treble].f (3:2:2G,2 .g | %213
 (3:2:2A,2 .a (3:2:2B,2 .[Bb] [ca]/c'/a/c'/ | z z/ [ec']/- [ec']<.A z .a' | z a'/c''/- c''2 z2 | %216
 z2 z a/c'/- c'2 | (3:2:2[EAce]2 .[Gg] [Acea] z/4 z/8 [Bb]/8-[Bb]/ [ca]/c'/a/c'/ | %218
 z z/ c'/- c'e z .^a' | %219
 [c'^a']/c''/ z/4 A3/4 .[c'-a']/c'/4c/4-c/<[Fe]/ [DBf]/-[DB-f-d'']/[B-f-b']/[B-f-d'']/ | %220
 [B-f-d'b']/[B-f-d'']/[B-f-b']/[Bf-d'']/ [f-d'b']/[f-f'd'']/[f-d'b']/4>f/4-[ff'-d''-]/ [DBfd'f'b'd'']2 | %221
 (3:2:2[Bdf]2 .[^A^a] (3:2:2[dfb]2 .[cc'] [db]/d'/b/d'/ | %222
 [db]/[fd']/.[db]/>[db]/- [Edb]B/d/ e/4[fd']/4f'/d'/f'/ | %223
 [fd']/[bf']/[fd']/[bf']/ [fd']/f'/(3:2:2d'/[bf'] [ae']/a'/e'/[c'a']/ | %224
 [ae']/ z/4 [c'a']/4-[ac'e'a']/[c'a']/4-[a-c'e'-a']/4 [ae']/a'/e'/[c'a']/ [ae']/[c'a']/[ae']/[c'a']/ | %225
 [ge']/g'/e'/ z/4 f/4- f.c' z/4 [fd']/4f'/d'/f'/ | e/e'/b/e'/ b/^d'/b/d'/ b/=d'/b/d'/ | %227
 [EGc]/c'/g/c'/ g/b/(3:2:2g/[db] z z/ C/ | ^D<.E .[Begb]2 [ac']3/2-[ac']/4-[d-ac']/4 | %229
 [Ed^de]2 .[Begb]2 .[ceac']2 | %230
 z/ [ge']/g'/e'/ g'/e'/[bg']/[ge']/ G/4-[G-g']/4[G-e']/[G-g']/[G-e']/ | %231
 [G-g']/[G-e']/[G-g']/[G-e']/ [G-g']/[Ge']/.g'/.g/ [C-cac'a'][C-g=c'^d'g']/[Ca^c'e'a']/ | %232
 z [eac'e'] [^dg=c'^d']<.[ea^c'e'] [ceac'][=cdg=c']/[^cea^c']/ | %233
 z [Acea] [G=c^dg]<.[A^cea] [EAce][G=cd]/[EA^ce]/ | z [CEAc] [=C^DG=c]<.[^CEA^c] .[A,CEA]2 | %235
 z2 z .[ceac'] z2 | z[K:bass] .A, A,4- | A,2 z2 z2 |] %238
V:2
 z6 | z z/ g/ a<.b a2 | z2 g/a/.b a2 | z2 g/a/.b a2- | a2 E4 | z2 z2 .[D,D]2 | %6
 .F,/->.[F,F]/-[F,F] .A,2 A,/-[A,a]/A/a/ | A,/a/A/a/ [A,DFA]-[A,-D-F-A-f']/[A,DFAa-]/ a z/4 G,3/4 | %8
 (3.[A,D] z .B, z .d'[K:bass] .F,2 | .F,2 (3:2:2[D,F,A,]/[K:treble]d-d[K:bass] .[D,DF]2 | %10
 .[F,A,DF]2[K:treble] .[A,DFA].A z/ [=G,-A,]3/2 | [G,-A,C=G]2 G,-[G,-c']/[G,a-]/ a2 | %12
 (3:2:2A,2 .B, [CE=GA] z/4[K:bass] [E,,-D]3/4 [E,,-=G,EGAcc']2 | [E,,=G,A,]2 .[A,CE].C A,,,2- | %14
 [A,,,=G,A,CE]2 E,,4- | [E,,B,CE=G]2[K:treble] [B,CEGB]2[K:bass] z2 | %16
 .[A,CE]2[K:treble] [CE=GA].c'[K:bass] z/ .[=G,EGAcc']3/2 | .[=G,A,]2 [G,E]-[G,-CE] G,2 | %18
 .[=G,A,-C-E-][A,CE]/[G,B,CE]/- [D,,-G,B,CE]2 D,,2- | %19
 [D,,B,DF]2[K:treble] [B,DFB]-[B,-D-F-B-f']/[B,DFBb-]/ b z/4 G,3/4 | %20
 (3.[A,D] z .D [A,D]-[A,Dd'][K:bass] D,,-[D,,-F,] | [D,,F,]2 z .d/-<.[Dd]/ D,,,2- | %22
 [D,,,-A,DFA][D,,,-A,-D-F-A]/[D,,,-A,DFA-]/ [D,,,F,,-A]2 F,,/-[F,,-d']/[F,,-d]/[F,,-d']/ | %23
 [F,,-D]/[F,,-d']/[F,,-d]/[F,,d']/ [DFAd]-[D-F-A-d-a']/[DFAdd'-]/ [F,,,-d']2 | %24
 F,,,2[K:treble] [DFA]-[DFAf'][K:bass] z .A, | .F,2 F,[K:treble] z/4 .D3/4[K:bass] z2 | %26
 .[A,D-F-A][DF]/[K:treble][A,DFA]/- [=G,,-A,DFA]2 G,,2- | %27
 [G,,D=GB]2 [DGBd]-[D-G-B-d-b']/[DGBdd'-]/ [=G,,,-d']2 | %28
 G,,,2- [G,,,E=GB]e'/[K:bass]b/- [=G,,-b]2 | [G,,-=G,B,]2 [G,,G,B,E=G].E z2 | %30
 .[=G,B,E=G][K:treble]=g/-[G,-g]/4[G,g]/4- [E,,-G,g]2 E,,/-[E,,-e]/[E,,-B]/[E,,-e]/ | %31
 [E,,-B,CE=GB]/[E,,-e]/[E,,-B]/[E,,-e]/ [E,,-B,CEGB]/[E,,e]/B/e/ A,,,/-[A,,,-e]/[A,,,-B]/[A,,,-e]/ | %32
 [A,,,-CEG]/[A,,,c]/4-[A,,,-G-c]/4[A,,,Gc]/4-[A,,,-=G,-A,-C-E-GA-c]/4[A,,,-G,-A,-C-E-Ac-]/4[A,,,G,-A,CEA-c-]/4 [G,Ac]2 F,/-[F,-a]/[F,-f]/[F,-a]/ | %33
 [F,-A,DF]/[F,-a]/[F,-f]/[F,-a]/ [F,-A,DF]/[F,-a]/[F,-f]/[F,-a]/ F,/-[F,-a]/[F,-f]/[F,a]/- | %34
 [F,-A,DFa]/[F,-f]/[F,-d]/[F,f]/4-[F,-A,-D-F-f]/4 [F,A,DFA-][FA] F/B/F/B/ | %35
 [F,-B,DF]/[F,-B]/[F,-F]/[F,B-]/ B/=G/E/G/ B/e/B/e/ | [B,E=GB]/e/B/e/- [A,CEe]/c/A/c/ z/ f/d/f/ | %37
 d/4-[df-]/4[d-f]/.[df-] f2[K:bass] .D,,,2[K:treble] | %38
 .f2[K:bass] E,,2- [E,,-G,]E,,/4->[E,,=G,]/4-[E,,-G,]/ | [E,,G,B,DE]2 .[G,B,E]2 z2 | %40
 .[G,B,DE]>[=G,^A,CE=G]- [E,,-G,A,CEG]2 [E,,-G,C]2 | [E,,G,B,DE]2[K:treble] .[B,DE]2 z2 | %42
 .[B,DEG]2 .[B,DEG]2 f/a/f/a/ | %43
 [F,-A,C]/[F,-a]/[F,f]/4-[F,-fa-]/4[E,-F,A,-C-E-a]/ [A,,-E,A,CE]2 A,,2- | %44
 [A,,CEA]2 .[CEA]2 b/c'/b/c'/ | %45
 [B,-CE]/[B,-c']/[B,-b]/[B,c']/ [A,A]/-[A,-A-c']/[A,-A-a]/[A,Ac']/ (3:2:2z2 d- | %46
 [A,DFd]>[A,CE]- [A,CE]3/2 z/4 d'/4- [G,d'-]d'/4>=G,/4-G,/ | .[G,B,DE]2 (3.[G,B,E]F=G (3:2:2z2 B- | %48
 [B,DEB]>[=G,^A,CE=G]- [G,A,CEG]2 [^G,^G]2- | [G,-B,DEG-]>[G,B,-D-E-G] [B,DE]2 .G,2 | %50
 [G,-DEG-]/[G,-Gb]/[G,-g]/[G,b]/ d'-[bd'] B/-[B-c']/[B-b]/[B-c']/ | %51
 [CFB-]/[B-c']/[B-b]/[Bc']/ [A,Fa]/c'/a/c'/[K:bass] F,/-[F,-b]/[F,-g]/[F,-b]/ | %52
 [F,-B,DG]2 [E,,-F,]2 E,,2- | [E,,-B,DF-]>[E,,B,-D-E-F] [E,-B,DE]2 E,2- | %54
 [A,,,E,]2 z/[K:treble] c/.A[K:bass] E,,<.=G, | %55
[K:treble] .[A,C]2 [CE=GA]/c/4-[A-c]/4[Ac-] .[A,,,=G,Gce]2 | .[A,C]2 [CE=GA]/c/.A z [=G,-A,-F] | %57
 [G,A,-CFA]2 [A,FA]/-[A,-F-A-a]/[A,-F-A-f]/[A,-F-A-a]/ [A,FA]/-[A,FAa]/f/a/ | %58
 [=G,-A,CE-]/[G,-Ea]/[G,-e]/[G,a]/ [CEA]/c/4-[A-c]/4[D,,A][K:bass] (3F, z F,- | %59
 [F,A,]2[K:treble] A,/-[A,-d]/[A,A] d/[K:bass].A,,,/F, | %60
 A,/[K:treble][A,DF]/-[A,-DFd-] [D,,-A,d]2 D,,/-[D,,-f]/[D,,-e]/[D,,-f]/ | %61
 [D,,A,EF]2 [A,EF]/-[A,-E-F-f]/[A,-E-F-e]/[A,-E-F-f]/ [A,,,-A,EF]2 | %62
 [A,,,-A,DF][A,,,-d]/[A,,,f-]/ [A,-f]/[A,d]/4-[A,Ad]/4-[A,Ad] .=G,2 | z2 [CE=GA]/c/ .c3 | %64
 .[A,C]2 A,/-[A,c]/.A z/ [=G,A,F]/4-[G,-A,-F-a]/4[G,-A,-Ff]/[G,-A,-a]/ | %65
 [G,-A,-CFA]2 [G,A,]/-[G,-A,-a]/[G,-A,-f]/[G,-A,a]/ [A,,,G,]2- | %66
 [A,,,-G,-A,C=G]>[A,,,-G,=g] [A,,,-CEGA]/[A,,,c]/4-[A,,,A-c]/4[D,,-A] D,,/-[D,,f]/4-[D,,d-f]/4[C,,-d] | %67
 C,,[K:bass].=C,,- .[C,,F,=CF]/-.[C,,F,CFa]/4-.[C,,F,CFfa]/4-[C,,F,CFfa][K:treble] [^D,A,]/-[D,-A,-^d']/[D,-A,-a]/[D,-A,-d']/ | %68
 [D,A,]/-[D,A,^d']/4-[D,-A,-a-d']/4[E,,-D,A,a] .[E,,=G,B,E=G]2 z/4 .[A,F]3/4 z/4 .[Ff]3/4 | %69
 [A,D-F-]/[D-F-A]/[A,DF] [CE]/-[C-E=G]/[=G,C][K:bass] z/4 [F,A,-D-]/4[A,-D-F]/[F,A,-D-] | %70
 [A,DF]2[K:treble] .[Dd]2 D/d/D/d/ | [^A,D^E]/d/D/d/ [A,DE]/d/.D D/d/D/d/ | %72
 [^A,^D=G]/^d/D/d/ [A,=D^E]/=d/.D =C/=c/C/c/ | %73
 [^A,^D=G]/^A/A,/A/ [=A,=CD]/=A/A,/A/[K:bass] z/ G/=G,/G/ | %74
 [=G,=C^D]/[K:treble]=G/G,/G/ [G,CD]/G/[K:bass].G, A,2- | %75
 [A,-=C]2 [A,-C^D^EA]/[A,=c]/[K:treble]C/c/[K:bass] ^E,,,/-[E,,,-c]/E,,,/-<[E,,,-^E,E]/ | %76
 [E,,,-=G,=C^D]/[E,,,-=G]/[E,,,-G,]/[E,,,-G]/ (3[E,,,-A,]E,,,.[^E,^E] E,/E/E,/E/ | %77
 [^E,^A,D]/[K:treble]^A/A,/A/ [E,A,D]/d/.D z/ [=A,^D]/4-[A,-D^da]/4[A,-D^e]/[A,da]/ | %78
 [^A,-D^E]/[A,-d]/[A,-D]/[A,d]/ [=C^DE]/=c/C/[ca]/ =D/d/D/d/ | %79
 [^A,D^E]/d/D/d/ [A,DE]/d/.D z/8 d/8-[^E,-Dd]/4[E,-d]/[E,-D]/[E,d]/ | %80
 [=G,-^A,^D=G]/[G,-^d]/[G,-D]/[G,d]/ [A,=D^E]/=d/.D =C/=c/C/c/ | %81
 [^A,^D=G]/^A/A,/A/ [=A,=CD]/=A/[K:bass].A, z/4 =G,/4G/G,/G/ | %82
 [=G,^A,CE]/[K:treble]=G/G,/G/ .[G,A,CE]/>[K:bass]G,/-G, [F,-F]2 | %83
 F,2 [F,A,D]/[K:treble]F/F,/F/[K:bass] z2 | %84
 [=G,^A,D]/[K:treble]=G/G,/G/ [G,A,D]<.G[K:bass] z/4 [F,-=A,]/4[F,-A]/[F,-A,]/[F,-A]/ | %85
 [F,-A,DF]/[F,-A]/[F,-A,]/[F,-A]/ [F,DF]/-[F,-D-F-A]/[F,-A,D-F-]/[F,DFA]/ z/ A/.A, | %86
 .A/-<.[A,DFA-]/A[K:treble] [A,D-F-]/[D-F-A]/[A,D-F-]/[DFA]/ [=G,-=G]2 | %87
 [G,-A,C]2 [G,-A,CE]/[G,A]/A,/A/[K:bass] .[C=G=gc'e']2 | %88
 .[A,C]2[K:treble] [A,CE]/A/.A, z/8 A/8-[=G,-C-FA]/4[G,-Cf]/[G,-F]/[G,-f]/ | %89
 [G,-A,CF]/[G,-f]/[G,-F]/[G,-f]/ [G,-A,CF]/[G,-f]/[G,-F]/[G,-f]/ [G,-F]/[G,f]/F/f/ | %90
 [=G,-A,CE]/[G,-e]/[G,-E]/[G,-e]/ [G,-A,CE]/[G,A]/4-[G,A,A]/4-[G,A,A][K:bass] [F,-F]2 | %91
 [F,-A,D]2 [F,-A,DF]/[F,A]/A,/[K:treble]A/ .[A,,,DFfad']2 | .[A,D]2 [A,DF]/A/.A, E/e/E/e/ | %93
 [A,EF]/e/E/e/ [A,-EF-]/[A,-F-e]/[A,-EF-]/[A,Fe]/[K:bass] A,,,/-[A,,,-e]/[A,,,-E]/[A,,,-e]/ | %94
 [A,,,-A,DF]/[A,,,-d]/[A,,,-D]/[A,,,-d]/ [A,,,-A,DF]/[A,,,A]/A,/A/ [=G,-=G]2 | %95
 [G,A,C]2[K:treble] [A,CE]/A/A,/A/ .[A,,,C=G=gc'e']2 | %96
 .[A,C]2 [A,CE]/A/A,/A/ [=G,-F]/[G,-f]/[G,-F]/[G,-f]/ | %97
 [G,-A,CF]/[G,-f]/[G,-F]/[G,-f]/ [G,-F]/[G,-f]/[G,-F]/[G,f]/[K:bass] A,,,/-[A,,,-f]/[A,,,-F]/[A,,,-f]/ | %98
 [A,,,=G,]/-[A,,,-G,-e]/[A,,,-G,-E]/[A,,,G,-e]/ [G,-A,CE]/[G,A]/(3:2:2A,/[K:treble][D,,-A] [D,,D,-F,-A,-]/[D,-F,-A,-d]/[D,-F,-A,-D]/[D,F,A,d]/ | %99
 [E,-=G,-C-Ec-e'=g'-]/[E,-G,-C-c-eg']/[E,-G,-C-Ec-]/[E,G,Cce]/ [F,-A,-=C-F=c-f'a'-]/[F,-A,-C-c-fa']/[F,A,CFc] z/ a/A/a/ | %100
 [F,-A,-=C-A]/[F,-A,-C-a]/[F,-A,-C-A]/[F,A,Ca]/ =G/=g/G/g/ [F,-A,DFff'a'd'']F,/-<[F,-Ff]/ | %101
 [F,-A,-D-F]/[F,-A,D-f]/[F,-D-F]/[F,Df]/ [Ee']/e/E/[K:bass][D,,-e]/ [D,,F,]/-[D,,-F,-d]/[D,,-F,-D] | %102
 [D,,F,d].[D,,,D] [D,D]2 z/[K:treble] .b3/2 | .[=G,B,D]2[K:bass] B,3- [B,=g] | %104
 .[=G,B,D]2 .[G,B,D] z/4 [A,=C=ca]3/4 [D,G,-B,]2 | [D,G,-B,D]2 [D,G,B,D]2 .[D,B,D]2 | %106
 .[=G,B,D]2[K:treble] .[D,G,-B,-]/[G,B,]/4d/4-d[K:bass] .[D,B,]2 | .[=G,B,D]2 B,3- [B,=g] | %108
 .[=G,=CE]2 .[G,CE]>[B,Ddb] .[F,A,C]2 | %109
 .[F,A,=CDF]2 .[F,A,CD]2[K:treble] [F,F]/-[F,-F-d]/[F,-F-f]/[F,-F-d]/ | %110
 [F,-A,=CDF-]/[F,-F-d]/[F,-F-f]/[F,F-d]/ [A,CDF]2[K:bass] [F,-C]2 | %111
 [F,-A,=CDF]>[F,C]- [D,,-F,C-]2 [D,,-C]D,,/-[D,,-a]/ | %112
 [D,,A,=CDF]2[K:treble] (3[A,CD-F-][DF][CE][K:bass] .[B,=G=gd']2 | .[=G,B,D]2 .[G,B,D]2 .B,2 | %114
 .[=G,B,D]2[K:treble] [G,B,D]/=g/.b[K:bass] z/ [E,A,=C]/-[E,A,CA]/4-<[E,-A,CA=c]/4[E,-A]/ | %115
 [E,A,=CE]2[K:treble] .[A,CE]2 [^A,C]/-[A,C^A]/=c/A/ | %116
 .[^A,=CE=G=c]2 .[A,CEG]2[K:bass] [^D,B,]/-[D,B,B]/[K:treble](3:2:2^d/[K:bass]^D,, | %117
 z/[K:treble] B/(3:2:2^d/[K:bass]F,, z/[K:treble] B/4-[Bd-]/4[B,,,-d] [B,,,^D,]2 | %118
 z z/4 d3/4 .e2[K:bass] E,-E,/4->[E,=c]/4-[E,-c]/ | [E,G,DE] z/4 [A,=C]3/4 [F,B,DF]A, z2 | %120
 .[^A,DF]2 .[B,D=G]2 (3:2:2[F,D]2 .E | .D,2 .[A,F]2 (3:2:2[^D,A,]2 =D,- | %122
 [D,=G,B,D]2 =C,,3- C,,/4->[C,,=c]/4-[C,,c]/ | %123
 [G,DE] z/4 [A,=C]3/4 [F,B,DF] z/4 A,3/4 =G,-G,/-<[G,-B]/ | %124
 (3:2:2[G,-^A,DF^A]2 [G,B][K:treble] .[B,D=G]2 .[D,=A,=C]2 | .[B,DF]2 .[A,=CF]2[K:bass] z .B, | %126
 .[B,D=G]>[K:treble][DGBd]- [DGBd]2[K:bass] E,-E,/4->[E,=c]/4-[E,-c]/ | %127
 [E,G,DE] z/4 [A,=C]3/4 [F,B,DF] z/4 A,3/4 =G,-G,/-<[G,-B]/ | %128
 [G,^A,DF^A]2[K:treble] .[B,D=G]2 (3:2:2[F,D]2 .[E=c] | %129
 .[D,G,^E=c^e]2 .[A,F]2[K:bass] (3:2:2[^D,A,]2 =D,- | %130
 [D,=G,B,D]2 z =C,,2[K:treble] z/4 z/8 =c/8-c/ | %131
 [G,DE] z/4[K:bass] [A,=C]3/4 [F,B,DF] z/4[K:treble] .[A,A]3/4 .[ABd]2 | %132
 .[C=GB]>D .[GB]2[K:bass] .=C2 | (3.[A,=C] z[K:treble] .e .[A,CF]2[K:bass] [D,B,]2- | %134
 [D,B,]2 z2[K:treble] B,/-[B,-b]/[B,-=g]/[B,-b]/ | %135
 [B,-D=GB]/[B,-b]/[B,-=g]/[B,-b]/ [B,G]/-[B,Gb]/g/b/ ^A,/-[A,-^a]/[A,-g]/[A,-a]/ | %136
 [A,-C=G^A]/[A,-^a]/[A,-=g]/[A,-a]/ [A,CGA]2[K:bass] z/[K:treble] [^A,G-]/G/-<[=G,A,=CEG]/ | %137
 .[=G,^A,=CE]2 .[G,A,CE]2[K:bass] z2 | =C,,,2[K:treble] E2 .^E/-.[E=c].E/ | %139
 (3[A,-=C^EA-][A,A].=c [A,CE]/A/A,/A/[K:bass] z/ A/A,/A/- | %140
 [=CEA]/[K:treble]=c/C/c/ [^A,D^E]/^A/[K:bass]A,/A/ =A,/=A/A,/A/ | %141
 ^A,/[K:treble]^A/A,/A/ .[=CE=G=c]2[K:bass] z/8 [E,-A,-CE-]3/8[E,-A,-Ec]/[E,-A,-C]/[E,-A,c]/ | %142
 [E,-B,]/[E,-B]/[E,-B,]/[E,-B]/ [E,-^A,=CE=G]/[E,^A]/A,/A/ =A,/=A/A,/A/ | %143
 [^A,D=G]/[K:treble]^A/A,/A/ .[=CEG=c]2[K:bass] z/4 [E,-A,-CE-]/4[E,-A,-Ec]/[E,-A,-C]/[E,-A,c]/ | %144
 [E,-B,E=G]/[E,-B]/[E,-B,]/[E,-B]/ [E,^A,=CEG].A, z/4 [G,B,-]/4[B,-^G]/[G,B,-]/[B,G]/ | %145
 [A,=C^E]/[K:treble]A/A,/A/ [^A,DE]/^A/A,/A/[K:bass] =A,/=A/A,/A/ | %146
 [G,=C^E]/[K:treble]G/G,/G/ [A,CE]/A/[K:bass].A, A-<[A,CEA] | %147
 .[A,=C^EA]2[K:treble] [CE]/^e/E/e/ E/e/E/e/ | %148
 [=CE=G]/e/E/e/ [D^EA]/d/D/d/ [=G,-^C=E-]/[G,-E-c]/[G,-CE-]/[G,Ec]/ | %149
 [^E,-D^E]/[E,-d]/[E,-D]/[E,d]/ .[=G,=E=G^Ae=g]2 z/4 [G,-EG-]/4[G,-Ge]/[G,-E]/[G,-e]/ | %150
 [G,-D=G^A]/[G,-d]/[G,-D]/[G,-d]/ [G,-^A,DG]/[G,A]/[K:bass]A,/A/ [^E,-=A,=C-]/[E,-C=A]/[E,-A,]/[E,-A]/ | %151
 [E,A,=C^E]2 [^E,B,]2 z [=E,-^A,] | [E,-=G,^A,=CE]2 [E,-C]/[E,A]/.C z/ [=C,=A,]/-[C,-^E,-A,] | %153
 [C,-E,A,][C,-=C] [C,^E]2 .^E,,,2 | %154
[K:treble] [D=c]/ z/8 ^e3/8c/e/ c/e/ z/4 ^E,,3/4- [E,,A,]/-[E,,-A,-e]/[E,,A,]/4-<[E,,-A,-c]/4[E,,-A,-e]/ | %155
 [E,,-A,-=C^EA=ca]/[E,,A,]/8-[E,,A,^e]/8-[E,,-A,-c-e]/4[E,,-A,-ce-]/4[E,,-A,-C-E-A-c-ea-^e'-a'-]/4[E,,-A,-C-E-A-ce-a-e'-a'-]/4[E,,A,-C-E-A-c-e-ae'-a'-]/4 [A,C-E-A-cee'-a'-]2 [A,-CEAe'a']A,/->[A,Dd]/- | %156
 [A,-=C-D^EA=cd]/[A,-C^e]/[A,-c]/[A,e]/ [EAc]/e/ z/4 ^E,,3/4- [E,,A,]/-[E,,-A,-e]/[E,,-A,-c]/[E,,-A,-e]/ | %157
 [E,,A,^e]-[E,,-A,-=C-^E-A-=c-ea-^e'-a'-]/[E,,-A,-C-E-A-ce-a-e'-a'-]/4[E,,A,-C-E-A-c-e-ae'-a'-]/4 [A,C-E-A-cee'-a'-]2 [A,-CEAe'a']2 | %158
 [A,=C-^EA-][CA]/a/ [CEA]/=c/.A z/ [=G,^A,]/4-[G,-A,-e]/4[G,A,-^A]/[A,e]/ | %159
 (3.[=G,^A,=CE] z .[Dd] [G,A,CE]/=G/E/G/- G>.[G,G] | %160
 [=G,-^A,=CE=G]/[G,^A]/G/A/ [CE=A]/=c/.A[K:bass] z/ [E,^A,]/4-[E,-A,-e]/4[E,-A,^A]/[E,e]/ | %161
 [^A,-=CE=G^A]/[A,e]/4-[A,D-d-e]/4[E,=G,A,CDEd]/4-[E,-G,-A,-C-D-EG-d-]/4[E,-G,-A,-C-DE-G-d]/ .[=C,,-E,G,A,CEG]2 C,,2- | %162
 [C,,-=G,=CE=G]C,,/-<[C,,A,]/[K:treble] .[^A,CEG] z/4 B,3/4 [=A,C]/-[A,-C-^e]/[A,-C-=c]/[A,-Ce]/ | %163
 [A,-=C^EA=ca^e'-a'-=c''-]/[A,e'a'c'']/8-[A,^ee'a'c'']/8-[A,-c-ee'a'c'']/4[A,-ce-=c'-]/4[A,-C-E-A-c-ea-c'-e'-a'-]/4[A,-C-E-A-ce-a-c'-e'-a'-]/4[A,C-E-A-c-e-ac'e'-a'-]/4 [CE-A-cee'-a'-]2 [A,-EAe'a']2 | %164
 [A,Dd]/4-[A,-=C-D^EA=cd]/4[A,-C-^e]/[A,C]/4-<[A,-C-c]/4[A,-Ce]/ [A,-C-EAc]<[A,Ce] z/ [A,C]/4-[A,-C-e]/4[A,-C-c]/[A,-Ce]/ | %165
 [A,-=C^EA=ca^e'-a'-=c''-]/[A,e'a'c'']/4-<[A,-^ee'a'c'']/4(3A,/4-[A,-c]/4[A,-e=c'] [A,-ca]/[A,e]/4-[A,c-e]/4[=C,,-c] C,,/-<[C,,-d]/C,,- | %166
 [C,,-=C^EA-]/[C,,-A=c'-]/[C,,CEA=cc']/-[C,,-C-E-A-c^e-c'-]/4[C,,-C-EAc-e-c']/4 [C,,D,,-Cce]2 D,,/-[D,,-d]/[D,,-B]/[D,,-d]/ | %167
 (3[D,,-=G,B,D]D,,-[D,,^E^e] E/-[E-b]/[E-e] E/-[^E,-B,-E]/[E,B,]/-<[E,-B,=E=e]/ | %168
 [E,-=G,B,E-]>[E,G,-B,-D-E^E-] [G,B,DE].d (3D z .[Dd] | %169
 [^A,D-=G]/[D=g]/4-[D-d-g]/4[Ddg]/4-[A,-=C-D-E-G-=c-dg-]/4[A,-C-D-E-G-ce-g]/4[A,C-DEGc-e-]/4 [^E,,-Cce]2 [E,,=C,=A,]2- | %170
 [E,,C,A,]2 z2 A,/-[A,-^e]/[A,-=c]/[A,-e]/ | %171
 [A,-=C^EA=c]/[A,-^e]/[A,-c]/[A,-e]/ [A,-CEAc]/[A,e]/c/e/ A,/-[A,-e]/[A,-d]/[A,-e]/ | %172
 [A,-^E-A-d]/[A,EA^e]/4-[A,EAde]/4-[A,EAde][K:bass] .[^D,A,]2 z .[C,A,]/=C,/ | %173
 C,/-[C,-E,]/[C,A,]/-[C,A,C]/- [C,-A,-CE]2 [C,A,Ee]2 |[K:treble] [Dd]2 .[Cc]2 z [G,-C]/[G,-D]/ | %175
 (3[G,-C-^EGc-][G,-Cc][G,=C=c] .[^CEG^c] z/4[K:bass] D3/4 [A,-C]2 | %176
 [A,B,CF]2 .[A,CF]2 z/ [^E,-G,]/E,/-<[E,-G,G]/ | [E,-G,B,C^EG]2 [E,A,CEA]2 (3[C,A,] z C,- | %178
 [C,-F,]>[C,-C] [C,-F][C,-A]/[C,c]/4-[C,c-^e-=c'-]/4 [cefc'^c']2 | %179
 z2[K:treble] .[=c^c=c']2 z/4 [F^c]3/4 z | z2 .[=C^C=c]2 .[A,CA]2 | %181
 [G,G]/-[G,-G-B]/[G,-B,G-]/[G,GB]/[K:bass] [=G,=G]/-[G,-G-c]/[G,-CG-]/[D,,-G,G]/ [D,,F,A,F]/-[D,,-F,A,Fd]/[D,,-D]/[D,,-d]/ | %182
 [D,,-F,A,D]/[D,,-F]/[D,,-F,]/[D,,-F]/ [D,,-F,A,D]/[D,,F]/ z/4[K:treble] [A,A]3/4 (5:4:5[D,,,-Df-a-]/[D,,,-df-a-][D,,,-Df-a-]/4[D,,,-d-fa]/4[D,,,d]/- | %183
 [D,,,-F,A,Dd-]/[D,,,-Fd-]/[D,,,-F,d-]/[D,,,-Fd-]/ [D,,,-F,A,Dd-]/[D,,,Fd]/ z/4 .[A,Aa]3/4 [F,-D]/[F,-d]/[F,-D]/[F,-d]/ | %184
 [F,-DFA]/[F,-d]/[F,-D]/[F,-d]/ [F,FA]/-[F,F-A-d]/[DF-A-]/[F-A-d]/ [FA]/-[FAd]/D/d/ | %185
 [CFA]/c/C/c/ [B,DF]/B/B,/B/ [E,-A,-C]/[E,A,c]/.C | %186
 c/4-[E,A,Cc-]/4[Ec-]/[E,c-]/[Ec]/[K:bass] [E,A,C]/E/ z/4[K:treble] .[A,Aa]3/4 [E,-C]/[E,c]/.C | %187
 c/4-[E,A,Cc-]/4[Ec-]/[E,c-]/[Ec]/[K:bass] [E,A,C]/E/ z/4 [A,A]3/4 [A,,,ea]/-[A,,,-ce-a-]/[A,,,-Ce-a-]/[A,,,-ce-a-]/ | %188
 [A,,,-CEAe-a-]/[A,,,-ce-a-]/[A,,,-Ce-a-]/[A,,,-ce-a-]/ [A,,,-CEAe-a-]/[A,,,ce-a-]/[Ce-a-]/[A,,-ea]/ [A,,E,]/-[A,,-E,-c]/[A,,-E,-C] | %189
 [A,,E,]/4-[A,,-E,-B,CE]/4[A,,-E,-B]/[A,,-E,-B,]/[A,,E,B]/[K:treble] [A,CE]/A/[K:bass].A, z/4 G,/4G/G,/G/ | %190
 [B,DE]/[K:treble]B/B,/B/ G/g/G/[E,,,-g]/ [E,,,-G,-G]/[E,,,-G,-g]/[E,,,-G,-G]/[E,,,-G,-g]/ | %191
 [E,,,-G,-DFB]/[E,,,-G,-f]/[E,,,-G,-F]/[E,,,G,-f]/ [G,-DEGB]/[G,d]/D/[K:bass]A,,/- [A,,E,]/-[A,,-E,-c]/[A,,-E,-C]/[A,,-E,-c]/ | %192
 [A,,-E,-A,CE]/[A,,-E,-c]/[A,,-E,-C]/[A,,E,c]/[K:treble] [A,E]/-[A,-E-c]/[A,-CE-]/[A,-E-c]/ [A,E]/-[A,Ec]/.C | %193
 c/4-[B,CEc-]/4[Bc]/B,/B/ [A,CE]/A/[K:bass]A,/B,,/- [B,,-G,]/[B,,G]/(3:2:2G,/[A,,-G] | %194
 [A,,-A,CE]/[A,,A]/.A, z/4[K:treble] [B,EG]/4B/B,/B/ [A,-=CF-]/[A,-F=c]/[A,-C]/[A,-c]/ | %195
 [A,-CF-A-]/[A,FAc]/.C ^D/^d/.D[K:bass] z G, | (3E, z .E, z E,,- [E,,G,]-[E,,G,]/-<[E,,-G,-^D^d]/ | %197
 (3[E,,-G,-Ee][E,,-G,-Ge][E,,-G,-EB] (3[E,,G,B,G][K:treble][EB].[Ge][K:bass] .[Ccea]2 | %198
 .[A,CE]2 .[A,CE]2 .[Ccea]2 | .[A,CE]2 .[A,CE]2 A,,-<[A,,-C] | %200
 (3[A,,-A,CE]A,,-[A,,-F] (3[A,,A,CE] z .E (3:2:2z2 .E | .[A,CF]2 .[A,CE]2 z/ [CA-c]3/2 | %202
 [A,CEA-]2 [A,CEA]2[K:treble] z/ [^A,^A-]3/2 | [F,^A,EA-]>[F,A,EA]- [B,,-F,A,EA]2 [B,,-Dd]2 | %204
 [B,,F,B,D]2[K:bass] .[F,B,D]2 (3:2:2z2 .F | %205
 .[G,-B,-D-G][G,B,D]/[K:treble][F,B,D]/- [F,B,D]2 [DB-d]2 | %206
 [F,B,DB-]2 [F,B,DB]2[K:bass] [B,,,B]2- | [B,,,-F,B,DB-]2 [B,,,E,,-B]2 [E,,A]2- | %208
 [E,,A,CFA-]2 [A,CFA]2 [CA]2 | [A,-C-E-c-c'][A,CEc-]/[A,-C-E-A-c]/ [A,CEA]2 [G,G-]2 | %210
 [G,B,DG-]2 [B,DG-]2 [E,,,-G]2 | %211
 [E,,,-C-E-G-c][E,,,-CEG]/[E,,,B,DEGB]/- [E,,,A,,-B,DEGB]2 [A,,E,C]2 | %212
 E,, z/4 z/8[K:treble] E/8-E/ z F[K:bass] (3:2:2G,,2 .G | %213
 (3:2:2A,,2 .A .B,,2 z/ [E,C]/4-[E,-C-e]/4[E,-Cc]/[E,-e]/ | %214
 [E,A,CE]2[K:treble] .[A,CE]>a c'/e'/c'/e'/ | [A,CE]/e'/c'/e'/- [A,CEAe']<.E[K:bass] z [E,-C] | %216
 (3[E,-A,CE]E,-[E,A,CE][K:treble] [A,CE]/e/c3/8 z/8 e/- [CEAce]2 | %217
 .[A,C]>[E,A,C]- [E,A,C]2 C/-[Ce]/c/e/ | %218
 [A,CE]/e/4-[c-e]/4[ce]/4-[A,-C-E-ce-]/4[A,CEAe]/4-[A,CEA-c-e]/4 [Ac-]c/->[c=c'-]/ [^A,-c']/[A,-e']/[A,-^c'] | %219
 [A,-CEF^A]/[A,e']/4-[A,-c'-e']/4[A,-C-EF-A-c']/[A,CE-FA]/ [B,,,-E]2 B,,,/-[B,,,-f']/[B,,,-d']/[B,,,-f']/ | %220
 [B,,,-B,DF]/[B,,,-f']/[B,,,-d']/[B,,,-f']/ (3[B,,,B,DF]/.[DB]3/2[K:bass]B,,- B,,2- | %221
 [B,,F]2 B,,2- [B,,F,]/-[B,,-F,-f]/[B,,-F,-d]/[B,,-F,-f]/ | %222
 [B,,F,B,DF]2[K:treble] B,,,2- [B,,,F,]/-[B,,,-F,-b]/[B,,,-F,-f]/[B,,,-F,-b]/ | %223
 [B,,,-F,-B,DF][B,,,F,b]/-[B,,,F,-f-b-]/ [F,fb]2 A,/-[A,-c']/[A,-a] | %224
 [A,-CE]2 A,/-[A,-c']/[A,-a] [E,,,-A,]2 | %225
 [E,,,-CE]/[E,,,-c']/[E,,,-g]/[E,,,c']/- [E,,,A,CFc'] z/8 f3/8 z/ F/-[F-b]/[F-f]/[Fb-]/ | %226
 [E-GBb]/[E-g]/[E-e]/[Eg]/ [^D-GB^d]/[D-g]/[D-d]/[Dg]/ [E,,,-=D-G-=d]/[E,,,-D-Gg]/[E,,,-D-d]/[E,,,-Dg-]/ | %227
 [E,,,-C-g]/[E,,,-C-e]/[E,,,-C-c]/[E,,,-Ce]/ [E,,,-B,-DEGB]/[E,,,B,-d]/[B,B][K:bass] z/ .[E,C]C,/4-[C,D,-^D,-D-]/4 | %228
 [D,D,E,D]2 z .G, z/ [E,-C][E,C]/4-[E,CD-]/4 | [D^D]2 z .G, A,,<.[E,C] | %230
[K:treble] G,/-[G,b]/-[G,-g-b]/[G,-gb-]/4[G,gb]/4- [G,-B,-gb]2 [G,B,]/4-[G,-B,-b]/4[G,-B,-g]/[G,-B,-b]/[G,B,-g]/ | %231
 [B,-b]/[B,-g]/[B,-b]/[B,g]/ b/g/.b[K:bass] z E,/4-<[E,=c]/4[K:treble]^c/ | z A G<.A E^D/E/ | %233
 z2 z2 z/ z/4 ^D/4-D | z[K:bass] E, ^D,<.E, .E,2 | z2 z .[E,C] z2 | z .[A,,,A,,] [A,,,A,,]4- | %237
 [A,,,A,,]2 z2 z2 |] %238
V:3
 x6 | A,,6[K:treble] | E6 | F6 | A2 e4 | z2 z2 .[FA]2 | z z/ [Ad]/- [Ad]2 D,,2- | D,,2 z2 z2 | %8
 z2 z2 D,,2- | D,,2 A2 .A2 | .[Ad]2 f2 [Ae-]2 | e4 z2 | z2 z/ =g/ .g3 | z2 z2 .C2 | %14
 =G2 B<b [c=g]2- | [cg]4 z2 | x6 | z2 z2 .[E=G]2 | =G2 b2 z2 | x6 | z2 z2 .f2 | %21
 .[A,D]2 .[A,DFA]2 D/d/D/.d/ | .d2 f2 a2- | a4 z2 | z2 z z/ a/- a2 | .[A,D]2 .[A,DFA]2 D/d/D/.d/ | %26
 .d2 f2 .d2 | x6 | x16/3[K:bass] x2/3 | z2[K:treble] B2 .E2 | B4 z2 | x6 | x6 | x6 | %34
 d/d'/.a/>d/- d.d d/f/d/f/ | x6 | z2 z/ a/ D,,3- | D,,4 z2 | z .c3 z2 | %39
 (9:8:8[Bdb]3/4B,3/4D3/4 [Bdb]3/4F3/4=G3/4 ^G3/2-[G-B]3/4 | (3[G-db]G-[G^A] .[Ac^a]>.a .[Aca]B | %41
 (3.[db] z B z2[K:bass] E,,,2- | %42
 (3[E,,,-egbe'][E,,,-F][E,,,-=G] [E,,,egbe']2[K:treble] c'/f'/c'/f'/ | %43
 [fc']/f'/c'/f'/ [ec']/[ae']/[ec']/a/- [eac']2 | x6 | x6 | z .c3 z2 | z2 z2 [G,G]2- | %48
 [G,G]2 z2 z2 | x6 | z z/ g'/ b'2 F,,2- | F,,2 z2 D,,2- | D,,2 z2 z2 | f'2 A,,4- | %54
 A,,2 z z/ a/ z z/ =G,/- | G,2 z2 z2 | x6 | x6 | x6 | x6 | z2 z2 .E2 | x6 | x6 | x6 | x6 | x6 | %66
 x6 | z2 z z/4 z/8 f'/8-f'/- f'2 | z2 z2 f/>A,/-A, | z z/ A,,,/- A,,,2 z2 | z2 z2 ^A,,,2- | %71
 A,,,2 z z/ ^A,,,/- A,,,2- | A,,,2 z z/ ^D,,/- D,,2- | D,,2 z2 z2 | x6 | z2 z2 .[=C=c'a']2 | x6 | %77
 z z/ z/4 [^ed']/4- [ed']2 z2 | z [^a^e'] z2 ^A,,,2- | A,,,2 z2 z2 | z2 z z/ ^D,,/- D,,2- | %81
 D,,2 z2 z2 | x6 | .[A,DF]2 [fd']/[af']/.[fd'] .[F,fd']2 | x6 | z .[af'] z2 .[A,af']>d' | %86
 z2 .a2 z2 | z2 .a2 z2 | z2 .a2 a'2- | a'4 z2 | .e'2 .a2 z2 | z2 .a2 z2 | z2 .a>A .e'2 | x6 | %94
 .d'2 .a2 z2 | z2 .a2 z2 | z2 .a2 a'2- | a'6 | .e'2 .a2 a'2 | %99
 .c''2 =c'' z/ [B,,,f'']/- [B,,,f'']2- | [B,,,f'']2[K:bass] .E,,2[K:treble] z2 | .f'2 c''2 .d'2 | %102
 z2 z z/ =G,,/- G,,2 | z2 B4 | d4 .B2 | x6 | z2 .[Dd]>B- B2 | z2 B4 | e4 =c2 | z2 z2 D,,2- | %110
 D,,2 z2 z2 | z2 =c4 | f4 z2 | x6 | x6 | z2 z2 =C,,2- | C,,2 z2 z2 | %117
 [^db]/f/(3:2:2b/[Bf] .[db]/>b/-b [B,^DFdb]2 | x6 | x6 | z2 z[K:bass] .D,,3[K:treble] | %121
 z2 z[K:bass] =G,,3[K:treble] | x6 | x6 | z z/ =g/- g2 z2 | z2 z .e3 | x6 | x6 | z [B=g] D,,4 | %129
 z D,2[K:bass] =G,,3[K:treble] | x6 | x6 | [b=g'b']d' D,,4- | D,,2 z2 [=GBd=g]2- | %134
 [GBdg]2 z2 =G,,2- | G,,2 z2 ^E,,2- | E,,2 z2 [^a=g']2 | z2 z[K:bass] =C,,3[K:treble] | %138
 z2 =G2 ^E,,2- | E,,2 z2 z2 | x6 | z2 z .=G, z2 | x6 | z2 z .=G,/>A,/- A,2 | z2 .e.e z2 | x6 | x6 | %147
 x6 | x6 | z2 z z/ z/4 ^D/4- D2 | x6 | x6 | z2 z z/ =A/- A2 | x6 | x6 | %155
 d''/ z/8 =c'3/8a/.b'/ z/ c'/4-[a-c']/4[^e-ac'-] .[=ceac']2 | %156
 a/=c'/a/c'/ a/c'/ z/4 b3/4 [=ca]/c'/a/c'/ | %157
 [=C^EA=cad'']/ z/8 [^e=c']3/8[ca]/.b'/ z/ c'/4-[a-c']/4[e-ac'-] [c-ea-c'][ca]/ z/4 d/4- | %158
 [de^e=c']/[a^e']/[ec']/e'/ e/a/(3:2:2e/[=ca] [^A=g]/^a/g/a/ | %159
 [^A=g]/[e^a]/d' A/e/.A .[EA] z/4 z/8 g/8-g/ | x6 | z2 z z/ [=Ge]/- [Ge]2 | x6 | %163
 d''/ z/8 =c'3/8a/.b'/ z/ c'/4-[a-c']/4[^e-ac'-] .[=ceac']2 | %164
 z/4 a/4 z/8 =c'3/8 z/8 a3/8c'/ a/.c'.[B,Bb]/ [=ca]/c'/ (3z/4 .a3/4c'/ | %165
 z2 =c''2 .[^e=c']/>=e/-e/<=g/ | z2 z2 .B2 | x6 | z2 z/ .d'3/2 =C,,2- | C,,4 [^EA=c^e]2- | %170
 [EAce]2 z2 ^E,,2- | E,,2 z2 ^E,,2- | E,,2 z2 [c'e']2- | [c'e']4 z2 | z2 z2 [gc']3/2-[gc']3/8 z/8 | %175
 x6 | z2 z .G3 | [Bg]2[K:bass] F,,2- [F,,FAcf]-[F,,-A,FA-c-f-] | %178
 (3[F,,-CAc-f-][F,,-Fcf-][F,,-Af] [F,,-c][F,,f][K:treble] ^e'<.f' | x6 | z2 z2 .a2 | %181
 [dg]2 [e=g]2 .[fa]2 | [Ad]2 z2 z2 | A2 z2 [fa]2- | [fa]4 z2 | .[fa]2 [df]2 .[ea]2 | A2 z2 .[ea]2 | %187
 A2 z2 z2 | x6 | .e2 .[ce]2 .[Bd]2 | .[eg]2 [be']4 | .[bd']2 .[gb]2 [ea]2- | [ea]4 z2 | %193
 .e2 .[ce]2 .[Be]2 | .[ce]2 [eg]2 .[fa]2 | [fa] z/ B,,,/- B,,,2 z2 | x6 | x6 | x6 | x6 | x6 | x6 | %202
 x6 | x6 | x6 | x6 | x6 | x6 | x6 | x6 | x6 | x6 | x2[K:bass] x4/3[K:treble] x8/3 | x6 | %214
 [ca]/[ec']/.[ca] .[ca]c/ z/4 =c'/4 a'/c''/ z/4 G,/4-[G,c'']/ | %215
 [c'a']/c''/ z/4 G3/4 [c'a']/c/[Ae] [ca]/[ec']/[ca]/[ec']/ | %216
 [ca]/[ec']/(3:2:2[ca]/[ec'] [ca]/c'/ z/4 .[CE]3/4 .a z/4 E,3/4 | x6 | %218
 [ca]/c'/.a .[ca]>a [c'^a']/c''/ z/4 =C/4-[Ce'c'']/ | z ^a'/[e'c'']/- [e'c'']2 .[d'b']2 | %220
 z2 z z/4 z/8 [Fd]/8-[Fd]/ z2 | x6 | z z/ [fd']/- [fd']<.F z2 | x6 | z/ A3/2 c4 | %225
 z z/ g'/ f'2 E,,2- | E,,2 z2 z2 | z2 z2 [Acea]2 | z2 z2 .[ce]>c | x6 | E,,6- | %231
 E,,2 z z/ e'/- e'2 | x6 | x6 | x6 | x6 | x[K:bass] x5 | x6 |] %238
V:4
 x6 | [E,A,CE]6 | A6 | D6 | A,6 | x6 | F/f/ .f3 F,2- | F,4 A,,,2- | A,,,2 [A,DF]2[K:bass] z2 | %9
 z2 z2[K:treble][K:bass] A,,,2- | A,,,2[K:treble] z2 E,,2- | E,,2 [A,C=G]2 A,,,2- | %12
 A,,,2 z .c'[K:bass] z2 | z2 =G,4 | z .[=G,B,CE]3 G,2- | G,4[K:treble][K:bass] A,,,2- | %16
 A,,,4[K:treble][K:bass] E,,2- | E,,2 .[A,C]2 A,,,2- | A,,,4 F,2- | F,4[K:treble] A,,,2- | %20
 A,,,2 F4[K:bass] | z2 F,4- | F,4 A,2- | A,6- | A,4[K:treble][K:bass] F,,2- | %25
 F,,2 z[K:treble] d[K:bass] F,,,2- | F,,,4[K:treble] B,2- | B,6- | B,6[K:bass] | z2 z2 =G,,,2- | %30
 G,,,4[K:treble] =G,2- | G,6 | G,2 D,,4- | D,,2 z2 A,,,2- | A,,,4 [=G,,,-F,]2 | %35
 G,,,2 .=G,2 [A,,,G,]2- | [A,,,G,]4 F,2- | F,/>[F,A,DF]/-[F,A,DF] [F,A,DF]3[K:bass][K:treble] d- | %38
 d e2[K:bass] z/ z/4 d'/4- d'2 | z2 z2 E,,,2- | E,,,4 z2 | z2[K:treble] G,4- | G,4 [A,,,-F,F-A-]2 | %43
 [A,,,FA-]2 A2 A,2- | A,4 [A,,,-B,B-]2 | [A,,,B]2 .[CE]2 A,,2- | A,,2 E,,4- | E,,2 z2 E,,,2- | %48
 E,,,2 E,,4- | E,,2 E,,4- | E,, z/ z/4 [^E,,B,D^EGBb]/4- [E,,B,DEGBb]2 .B,2 | %51
 B,2 [Cc]2[K:bass] .D2 | z z/ [B,DF]/- [B,DF]2 [G,G]2- | [G,G]4 C2- | C2 A,2[K:treble][K:bass] z2 | %55
[K:treble] z2 A,2 z2 | z2 .A,2 A,,2- | A,,2 C2 A,,,2- | A,,,2 [A,=G]2[K:bass] z2 | %59
 z2[K:treble] .[DFA]2 z2[K:bass] | z/[K:treble] AA/- A2 F,2- | F,6- | F,3 .E,,3 | %63
 .[A,C]2 A,/->[A,A]/-[A,A] .[A,,,=G,C=Ge]2 | z2 .[CE=GA]2 A,,2- | A,,2 [CFA]4 | .E2 A,2 [D,F,D]2 | %67
 [E,=G,CE]2[K:bass] A, .B,,,3[K:treble] | [=C^DF]2 z2 A,,2- | A,,2 .=G,2[K:bass] D,,2- | %70
 D,,2[K:treble] z2 ^E,2- | E,4 ^E,2 | =G,2 ^E,2 G,2- | G,2 z2[K:bass] ^D,,,2- | %74
 D,,,3[K:treble][K:bass] z/ ^E,,/- E,,2 | x3[K:treble] x[K:bass] x2 | z2 z2 [^A,,,-=D]2 | %77
 A,,,2[K:treble] z2 ^E,,2- | E,,2 =A,2 ^E,2- | E,4 ^A,,,2- | A,,,2 ^E,2 =G,2- | %81
 G,2 z2[K:bass] E,,2- | E,,2[K:treble] z/ =G/[K:bass] .D,,3 | z2 z2[K:treble][K:bass] D,,,2- | %84
 D,,,4[K:treble][K:bass] D,,2- | D,,2 .A,2 A,,,2- | A,,,3[K:treble] z/ E,,/- E,,2 | %87
 z2 z2[K:bass] [A,,,=G,]2- | [A,,,G,]2[K:treble] z2 A,,2- | A,,2 z2 A,,,2- | A,,,3 .D,,3[K:bass] | %91
 z2 z2[K:treble] F,2- | F,4 F,2- | F,6[K:bass] | z2 z z/ E,,/- E,,2 | z2[K:treble] z2 =G,2- | %96
 G,2 z z/ A,,/- A,,2- | A,,2 [A,C]4[K:bass] | .[A,CE]2 z2[K:treble] .D>C,,- | %99
 C,, z/ =C,,/- C,,2 ^D,2- | D,2 [=G,B,-E]B,/A,,/- A,,2- | A,,2 .[A,,,=G,A,C=g']2[K:bass] .D2 | %102
 z2 z2 .[D,B,]2[K:treble] | z2[K:bass] .[=G,D]2 D,,2- | D,,2 z z/4 =G,,3/4- G,,2- | %105
 G,,2 z2 [D,,=G]2- | [D,,G]2[K:treble] z/ B/ .=G,,3[K:bass] | z2 .[=G,D]2 D,,2- | %108
 D,,2 z z/ A,,/- A,,2- | A,,2 z2[K:treble] .=C2 | z2 z[K:bass] A,,3 | z z/ [A,DF]/- [A,DF]2 F,2- | %112
 F,2[K:treble] z2[K:bass] =G,,2- | G,,2 z2 [D,,Bd]2- | [D,,Bd]2[K:treble] z2[K:bass] =C,,2- | %115
 C,,2[K:treble] z2 E,2- | E,2 z[K:bass] .B,,,3[K:treble][K:bass] | %117
 .[^D,B,^DF]2[K:treble][K:bass] [F,B,DF]2[K:treble] z2 | z2 z[K:bass] =C,,3 | %119
 z z/4 D,,3/4- D,,2 [=G,,=G,]2- | [G,,G,]2 z2 z2 | z z/ D,/- D,2 z2 | z [=G,B,D]3 E,2- | %123
 E, z/4 D,,3/4- D,, z/4 =G,,3/4- G,,2- | G,,2[K:treble] z2 z2 | z2 z2[K:bass] =G,,2- | %126
 G,,2[K:treble] =C,,4[K:bass] | z z/4 D,,3/4- D,, z/4 =G,,3/4- G,,2- | G,,2[K:treble] z2 z2 | %129
 x4[K:bass] x2 | z2 [=G,B,D]2[K:treble] E,2- | E, z/4[K:bass] D,,3/4- D,,2[K:treble] [=G,,,D,]2- | %132
 [G,,,D,]2 z2[K:bass] F,2- | F,3[K:treble][K:bass] =G,,3- | G,,2 z2[K:treble] .=G2 | %135
 z2 .[DB]2 .=G2 | z2 z2[K:bass] E,,2[K:treble] | z2 z2[K:bass] [E,=G,^A,=CE]2- | %138
 [E,G,A,CE][K:treble] .=C3 =A,2 | z2 z2[K:bass] =C,,2- | C,,2[K:treble] z[K:bass] z/ =G,,/- G,,2- | %141
 G,,2[K:treble] z2[K:bass] =C,,2- | C,,2 z z/ =G,,/- G,,2- | G,,2[K:treble] z2[K:bass] =C,,2- | %144
 C,,2 z2 ^E,,2- | E,,2[K:treble] z2[K:bass] [=C,,-=C]2 | C,,4[K:treble][K:bass] ^E,,2- | %147
 E,,2[K:treble] z2 [^E,,,A,]2- | [E,,,A,]2 z z/ ^A,,/- A,,2- | A,,2 z2 ^A,,,2- | %150
 A,,,2 z[K:bass] z/ =C,,/- C,,2- | C,, .=G,,3 =C,,2- | C,,2 [^A,E]2 ^E,,2- | E,,4 z2 | %154
[K:treble] =C3 z/4 [B,B]3/4 C2 | [^e'a'=c'']=c' =C,,4- | C,,2 =C z/4 [B,B]3/4 C2 | =c'2 =C,,4- | %158
 C,,2 A,2 =G,,2- | G,,2 E,2 =C,,2- | C,,2 =A,2[K:bass] =G,,2- | G,,4 E,2- | %162
 E,3[K:treble] z/4 ^E,,3/4- E,,2- | E,,2 =C,,4- | C,,4 ^E,,2- | E,,2 [=C^EA^e'a']2 A,2- | %166
 A,4 ^E,2- | E,2 .[=G,B,D]2 =G,,2- | G,,2 ^e2 =E,2- | E,4 z2 | z2 z2 =C,2- | C,2 z2 D,2- | %172
 D, .^E,,3[K:bass] =E,,2- | E,,6 |[K:treble] z2 z2 ^E,,2- | E,,2 z z/4[K:bass] F,,3/4- F,,2- | %176
 F,,2 z2 C,,2- | C,,2 z2 z2 | z A,3 z2 | z2[K:treble] z2 .[^E=c]2 | x6 | .B,2[K:bass] .C>c .D2 | %182
 x13/4[K:treble] x11/4 | z2 z z/4 D,,3/4- D,,2- | D,,2 .D2 D,,,2- | D,,,2 z z/ E,,/- E,,2- | %186
 E,,2[K:bass] z z/4[K:treble] C,,3/4- C,,2- | C,,2[K:bass] z2 .C2 | z2 z z/ c/ .C2 | %189
 .c2[K:treble] z2[K:bass] E,,2- | E,,2[K:treble] [DE]4 | z2 z z/[K:bass] d/ .C2 | %192
 z2[K:treble] .C2 A,,,2- | A,,,2 z[K:bass] z/ A/ .B,2 | z2 G,,[K:treble] z/ F,,/- F,,2- | %195
 F,,2 [B,FA]2[K:bass] E,,2 | z2 E,2 z2 | z2 z2[K:treble][K:bass] A,,2- | A,,4 A,,,2- | %199
 A,,,2 z2 z2 | z2 z2 A,,,2- | A,,,2 z2 A,,2- | A,,2 z2[K:treble] F,,2- | F,,4 B2- | %204
 B4[K:bass] B,,,2- | B,,,2[K:treble] B,,4- | B,,2 z2[K:bass] .[Ddfb]2 | %207
 z z/ [F,B,D]/- [F,B,D]2 .C2 | z2 z2 E,,,2- | E,,,2 E,,4- | E,,2 G,4- | G,4 z2 | %212
 x11/8[K:treble] x21/8[K:bass] x2 | z2 z2 A,,2- | A,,2[K:treble] z e [A,,,-E,-C]2 | %215
 [A,,,E,]2 z2[K:bass] A,,2- | A,,2[K:treble] z z/4 z/8 A,/8-A,/ A,,,2- | A,,,2 A,,4- | A,,2 F,,4- | %219
 F,,2 z2 F,2- | F,4[K:bass] z2 | .[B,D]>[B,DFB]- [B,DFB]2 .D2 | %222
 z z/[K:treble] [B,DF]/- [B,DF]2 D2 | z/ [DFB]3/2 E,,4- | E,,2 [EA]4 | G2 z a G,2- | G,6- | %227
 G,4[K:bass] A,,2 | z2 E,,2 A,,2 | z2 E,,2 z2 |[K:treble] D4 [DE]2- | %231
 [DE]4[K:bass] A,,2[K:treble] | x6 | z C =C<.^C A,3/4 z/4 G,/A,/ | z2[K:bass] z .A,,3 | %235
 z2 A,,2 z2 | x6 | x6 |] %238

